static/logos/super-wordmark-color.svg

<svg width="100" height="21" viewBox="0 0 100 21" fill="none" xmlns="http://www.w3.org/2000/svg">
<g clip-path="url(#clip0_1_853)">
<path d="M0.03125 10.1055C0.03125 2.53916 2.55332 0.0170898 10.1196 0.0170898C17.686 0.0170898 20.2081 2.53916 20.2081 10.1055C20.2081 17.6717 17.686 20.1938 10.1196 20.1938C2.55332 20.1938 0.03125 17.6717 0.03125 10.1055Z" fill="#FFC158"/>
<path fill-rule="evenodd" clip-rule="evenodd" d="M10.2445 4.77378L6.09671 11.1168C5.96512 11.318 6.10949 11.5849 6.34992 11.5849H8.48631H9.58793H10.1525L9.44809 15.4304C9.38863 15.7551 9.81817 15.9268 9.99887 15.6505L14.1466 9.30747C14.2782 9.10623 14.1339 8.83933 13.8935 8.83933H11.3348H10.6555H10.0908L10.7953 4.99387C10.8548 4.6691 10.4252 4.49745 10.2445 4.77378Z" fill="#FFFEFC"/>
<path d="M32.3479 4.63562C26.76 4.63562 25.363 5.83901 24.9331 8.22429C24.5248 10.6096 25.5564 11.5981 30.3277 11.5981C33.1216 11.5981 33.9168 11.5981 33.7879 12.2857C33.6589 12.9949 32.8637 12.9949 30.865 12.9949C28.8662 12.9949 28.071 12.9949 28.2214 12.1998H24.0519C23.5576 14.9934 24.8042 15.7885 30.3921 15.7885C35.9801 15.7885 37.5061 14.9934 38.0003 12.1998C38.4302 9.81448 37.2051 8.8045 32.4124 8.8045C29.6184 8.8045 28.8232 8.78299 28.9521 8.11685C29.0811 7.40774 29.8763 7.40774 31.8751 7.40774C33.4655 7.40774 34.6691 7.40774 34.5186 8.20283H38.4947C38.9245 5.75308 37.9359 4.63562 32.3479 4.63562Z" fill="#0F0F0F"/>
<path d="M50.7667 5.02246L49.8471 10.2013C49.4968 12.1998 47.9204 12.9949 46.3003 12.9949C44.6801 12.9949 43.3883 12.1998 43.7605 10.2013L44.6801 5.02246H40.2136L39.2721 10.2013C38.5497 14.1768 40.6953 15.7885 44.3517 15.7885C47.1979 15.7885 49.0371 14.5851 49.0371 14.5851L49.2998 15.3802H53.3503L55.2112 5.02246H50.7667Z" fill="#0F0F0F"/>
<path d="M65.282 4.63562C62.4356 4.63562 61.0124 5.83901 61.0124 5.83901L61.166 5.04391H56.6992L53.9844 20.1937H58.4512L59.4582 14.6066C59.4582 14.6066 60.4652 15.8099 63.3116 15.8099C66.9677 15.8099 70.0113 14.6066 70.7995 10.2228C71.5655 5.8175 68.9386 4.63562 65.282 4.63562ZM66.3111 10.2013C65.9607 12.1998 64.3844 12.9949 62.7644 12.9949C61.1439 12.9949 59.8523 12.1998 60.2243 10.2013C60.5747 8.20283 62.151 7.40774 63.7714 7.40774C65.3914 7.40774 66.6615 8.20283 66.3111 10.2013Z" fill="#0F0F0F"/>
<path d="M80.0919 4.63562C75.231 4.63562 72.3194 6.13987 71.5965 10.1153C70.8741 14.0908 73.2385 15.7885 78.0995 15.7885C81.5151 15.7885 83.376 15.1868 85.1275 13.6395L82.5221 11.9849C81.9528 12.3287 81.3399 12.9949 78.603 12.9949C76.7636 12.9949 75.9318 12.3073 75.9755 10.9104H86.4412C86.507 10.6526 86.5722 10.3947 86.6164 10.1153C87.3167 6.11836 84.9523 4.63562 80.0919 4.63562ZM76.4132 8.91194C76.9388 7.79453 77.7491 7.40774 79.5884 7.40774C81.4051 7.40774 82.1059 7.77302 82.2154 8.91194H76.4132Z" fill="#0F0F0F"/>
<path d="M92.9085 5.8175L93.0621 5.02242H88.5953L86.7344 15.3802H91.2012C91.2012 15.3802 91.4859 13.79 91.9894 10.9964C92.4929 8.20283 94.5948 7.81599 96.2147 7.81599C97.8131 7.81599 98.3387 7.9879 99.3894 8.22429L99.9586 5.04391C99.3894 4.872 98.032 4.63562 96.784 4.63562C93.9376 4.63562 92.9085 5.8175 92.9085 5.8175Z" fill="#0F0F0F"/>
</g>
<defs>
<clipPath id="clip0_1_853">
<rect width="100" height="20.2156" fill="white"/>
</clipPath>
</defs>
</svg>

<svg xmlns="http://www.w3.org/2000/svg" width="304.762" height="64" fill="none" viewBox="0 0 100 21"><g clip-path="url(#a)"><path fill="#FFC158" d="M.031 10.105C.031 2.54 2.553.018 10.12.018c7.566 0 10.088 2.522 10.088 10.088 0 7.567-2.522 10.089-10.088 10.089C2.553 20.194.03 17.672.03 10.106Z"/><path fill="#FFFEFC" fill-rule="evenodd" d="m10.245 4.774-4.148 6.343a.303.303 0 0 0 .253.468H10.153l-.705 3.845c-.06.325.37.497.55.22l4.149-6.343a.303.303 0 0 0-.254-.468h-3.802l.704-3.845c.06-.325-.37-.497-.55-.22Z" clip-rule="evenodd"/><path fill="#0F0F0F" d="M32.348 4.636c-5.588 0-6.985 1.203-7.415 3.588-.408 2.386.623 3.374 5.395 3.374 2.794 0 3.589 0 3.46.688-.13.709-.924.709-2.923.709s-2.794 0-2.644-.795h-4.17c-.493 2.793.753 3.589 6.341 3.589s7.114-.796 7.608-3.59c.43-2.385-.795-3.394-5.588-3.394-2.794 0-3.589-.022-3.46-.688.13-.71.924-.71 2.923-.71 1.59 0 2.794 0 2.644.796h3.976c.43-2.45-.56-3.567-6.147-3.567ZM50.767 5.022l-.92 5.18c-.35 1.998-1.927 2.793-3.547 2.793s-2.912-.795-2.54-2.794l.92-5.179h-4.466l-.942 5.18c-.722 3.975 1.423 5.587 5.08 5.587 2.846 0 4.685-1.204 4.685-1.204l.263.795h4.05l1.861-10.358h-4.444ZM65.282 4.636c-2.846 0-4.27 1.203-4.27 1.203l.154-.795h-4.467l-2.715 15.15h4.467l1.007-5.587s1.007 1.203 3.854 1.203c3.656 0 6.7-1.203 7.487-5.587.766-4.406-1.86-5.587-5.517-5.587Zm1.03 5.565c-.351 1.999-1.928 2.794-3.548 2.794s-2.912-.795-2.54-2.794c.35-1.998 1.927-2.793 3.547-2.793s2.89.795 2.54 2.793ZM80.092 4.636c-4.861 0-7.773 1.504-8.495 5.48-.723 3.975 1.642 5.673 6.503 5.673 3.415 0 5.276-.602 7.028-2.15l-2.606-1.654c-.57.344-1.182 1.01-3.919 1.01-1.84 0-2.671-.688-2.627-2.085H86.44c.066-.257.131-.515.175-.795.7-3.997-1.664-5.48-6.524-5.48Zm-3.679 4.276c.526-1.117 1.336-1.504 3.175-1.504 1.817 0 2.518.365 2.627 1.504h-5.802ZM92.909 5.817l.153-.795h-4.467l-1.86 10.358H91.2l.788-4.384c.504-2.793 2.606-3.18 4.226-3.18 1.598 0 2.124.172 3.174.408l.57-3.18c-.57-.172-1.927-.408-3.175-.408-2.846 0-3.876 1.181-3.876 1.181Z"/></g><defs><clipPath id="a"><path fill="#fff" d="M0 0h100v20.216H0z"/></clipPath></defs></svg>
